public/images/icons/arduino.svg

<?xml version="1.0" encoding="UTF-8"?>
<svg width="36px" height="18px" viewBox="0 0 36 18" version="1.1" xmlns="http://www.w3.org/2000/svg" xmlns:xlink="http://www.w3.org/1999/xlink">
    <title>icons8-arduino</title>
    <defs>
        <filter color-interpolation-filters="auto" id="filter-1">
            <feColorMatrix in="SourceGraphic" type="matrix" values="0 0 0 0 0.974977 0 0 0 0 0.989612 0 0 0 0 0.991508 0 0 0 1.000000 0"></feColorMatrix>
        </filter>
        <linearGradient x1="44.1145833%" y1="35.4447917%" x2="53.9%" y2="59.64375%" id="linearGradient-2">
            <stop stop-color="#00B3BA" offset="0%"></stop>
            <stop stop-color="#00979C" offset="99.8%"></stop>
        </linearGradient>
    </defs>
    <g id="Homepage" stroke="none" stroke-width="1" fill="none" fill-rule="evenodd">
        <g id="icons8-arduino" transform="translate(-142.000000, -2317.000000)" filter="url(#filter-1)">
            <g transform="translate(142.000000, 2317.000000)">
                <path d="M27,18 C23.2365,18 19.93125,15.10575 18,12.2145 C16.06875,15.10575 12.7635,18 9,18 C4.03725,18 0,13.96275 0,9 C0,4.03725 4.03725,0 9,0 C13.45125,0 16.413,3.336 18,5.81625 C19.587,3.336 22.54875,0 27,0 C31.96275,0 36,4.03725 36,9 C36,13.96275 31.96275,18 27,18 Z M20,9.02775 C21.2015826,11.7105 24.2453,15 27.1635333,15 C30.3816151,15 33,12.30825 33,9 C33,5.69175 30.3816151,3 27.1635333,3 C23.2122454,3 20.7426904,7.4655 20,9.02775 Z M8.83515682,3 C5.61779723,3 3,5.69175 3,9 C3,12.30825 5.61779723,15 8.83515682,15 C11.7651349,15 14.8205689,11.6835 16,9.02775 C15.2808169,7.5135 12.8067104,3 8.83515682,3 Z M12,9.5 L12,8.5 C12,8.224 11.832,8 11.625,8 L6.375,8 C6.168,8 6,8.224 6,8.5 L6,9.5 C6,9.776 6.168,10 6.375,10 L11.625,10 C11.832,10 12,9.776 12,9.5 Z M29.625,8.25 L27.75,8.25 L27.75,6.375 C27.75,6.168 27.582,6 27.375,6 L26.625,6 C26.418,6 26.25,6.168 26.25,6.375 L26.25,8.25 L24.375,8.25 C24.168,8.25 24,8.418 24,8.625 L24,9.375 C24,9.582 24.168,9.75 24.375,9.75 L26.25,9.75 L26.25,11.625 C26.25,11.832 26.418,12 26.625,12 L27.375,12 C27.582,12 27.75,11.832 27.75,11.625 L27.75,9.75 L29.625,9.75 C29.832,9.75 30,9.582 30,9.375 L30,8.625 C30,8.418 29.832,8.25 29.625,8.25 Z" id="Shape" fill="url(#linearGradient-2)" fill-rule="nonzero"></path>
            </g>
        </g>
    </g>
</svg>

<svg width="36" height="18" xmlns="http://www.w3.org/2000/svg"><defs><linearGradient x1="44.115%" y1="35.445%" x2="53.9%" y2="59.644%" id="b"><stop stop-color="#00B3BA" offset="0%"/><stop stop-color="#00979C" offset="99.8%"/></linearGradient><filter color-interpolation-filters="auto" id="a"><feColorMatrix in="SourceGraphic" values="0 0 0 0 0.974977 0 0 0 0 0.989612 0 0 0 0 0.991508 0 0 0 1.000000 0"/></filter></defs><g transform="translate(-142 -2317)" filter="url(#a)" fill="none" fill-rule="evenodd"><path d="M27 18c-3.764 0-7.069-2.894-9-5.786C16.069 15.106 12.764 18 9 18c-4.963 0-9-4.037-9-9s4.037-9 9-9c4.451 0 7.413 3.336 9 5.816C19.587 3.336 22.549 0 27 0c4.963 0 9 4.037 9 9s-4.037 9-9 9Zm-7-8.972C21.202 11.71 24.245 15 27.164 15 30.382 15 33 12.308 33 9s-2.618-6-5.836-6C23.212 3 20.743 7.465 20 9.028ZM8.835 3C5.618 3 3 5.692 3 9s2.618 6 5.835 6c2.93 0 5.986-3.316 7.165-5.972C15.28 7.513 12.807 3 8.835 3ZM12 9.5v-1c0-.276-.168-.5-.375-.5h-5.25C6.168 8 6 8.224 6 8.5v1c0 .276.168.5.375.5h5.25c.207 0 .375-.224.375-.5Zm17.625-1.25H27.75V6.375A.375.375 0 0 0 27.375 6h-.75a.375.375 0 0 0-.375.375V8.25h-1.875a.375.375 0 0 0-.375.375v.75c0 .207.168.375.375.375h1.875v1.875c0 .207.168.375.375.375h.75a.375.375 0 0 0 .375-.375V9.75h1.875A.375.375 0 0 0 30 9.375v-.75a.375.375 0 0 0-.375-.375Z" fill="url(#b)" fill-rule="nonzero" transform="translate(142 2317)"/></g></svg>
